svg/color/abbusd.svg

<?xml version="1.0" encoding="UTF-8" ?>
<!DOCTYPE svg PUBLIC "-//W3C//DTD SVG 1.1//EN" "http://www.w3.org/Graphics/SVG/1.1/DTD/svg11.dtd">
<svg width="250pt" height="250pt" viewBox="0 0 250 250" version="1.1" xmlns="http://www.w3.org/2000/svg">
<g id="#ffffffff">
<path fill="#ffffff" opacity="1.00" d=" M 0.00 0.00 L 121.30 0.00 C 92.39 0.88 63.89 12.08 42.25 31.29 C 17.11 53.14 1.94 85.49 0.00 118.63 L 0.00 0.00 Z" />
<path fill="#ffffff" opacity="1.00" d=" M 128.71 0.00 L 250.00 0.00 L 250.00 121.33 C 249.00 86.01 232.33 51.36 204.98 28.92 C 183.74 11.11 156.39 0.87 128.71 0.00 Z" />
<path fill="#ffffff" opacity="1.00" d=" M 73.51 91.49 C 90.70 74.38 107.80 57.16 125.00 40.06 C 131.39 46.33 137.63 52.74 144.03 59.00 C 144.79 59.81 145.95 60.57 145.67 61.87 C 128.36 79.25 110.87 96.47 93.69 113.99 C 92.75 113.85 91.95 113.44 91.29 112.78 C 84.91 106.38 78.58 99.92 72.02 93.71 C 72.40 92.89 72.90 92.15 73.51 91.49 Z" />
<path fill="#ffffff" opacity="1.00" d=" M 156.41 72.31 L 157.06 72.19 C 164.25 78.91 171.07 86.07 178.05 93.03 C 149.68 121.33 121.41 149.72 93.03 178.00 C 85.99 171.01 79.03 163.95 71.96 156.98 C 72.31 156.57 73.01 155.75 73.36 155.35 C 101.06 127.69 128.73 99.99 156.41 72.31 Z" />
<path fill="#ffffff" opacity="1.00" d=" M 40.06 125.00 C 47.00 117.95 54.07 111.03 61.01 103.97 C 68.63 110.44 75.28 118.06 82.50 125.00 C 75.65 131.90 68.76 138.77 61.90 145.65 C 61.57 145.61 60.90 145.54 60.57 145.51 C 53.69 138.71 46.87 131.86 40.06 125.00 Z" />
<path fill="#ffffff" opacity="1.00" d=" M 187.26 105.17 C 187.84 104.16 189.28 103.93 190.00 104.92 C 196.64 111.62 203.37 118.23 209.99 124.95 C 181.67 153.33 153.32 181.67 124.96 209.99 C 118.08 203.19 111.25 196.34 104.44 189.47 C 103.67 187.73 105.87 186.86 106.73 185.69 C 133.61 158.89 160.45 132.05 187.26 105.17 Z" />
<path fill="#ffffff" opacity="1.00" d=" M 0.00 128.63 C 0.95 162.54 16.33 195.81 41.75 218.30 C 62.80 237.22 90.42 248.27 118.61 250.00 L 0.00 250.00 L 0.00 128.63 Z" />
<path fill="#ffffff" opacity="1.00" d=" M 221.06 205.01 C 238.89 183.75 249.14 156.37 250.00 128.65 L 250.00 250.00 L 128.65 250.00 C 163.96 249.00 198.61 232.35 221.06 205.01 Z" />
</g>
<g id="#f0b90bff">
<path fill="#f0b90b" opacity="1.00" d=" M 121.30 0.00 L 128.71 0.00 C 156.39 0.87 183.74 11.11 204.98 28.92 C 232.33 51.36 249.00 86.01 250.00 121.33 L 250.00 128.65 C 249.14 156.37 238.89 183.75 221.06 205.01 C 198.61 232.35 163.96 249.00 128.65 250.00 L 118.61 250.00 C 90.42 248.27 62.80 237.22 41.75 218.30 C 16.33 195.81 0.95 162.54 0.00 128.63 L 0.00 118.63 C 1.94 85.49 17.11 53.14 42.25 31.29 C 63.89 12.08 92.39 0.88 121.30 0.00 M 73.51 91.49 C 72.90 92.15 72.40 92.89 72.02 93.71 C 78.58 99.92 84.91 106.38 91.29 112.78 C 91.95 113.44 92.75 113.85 93.69 113.99 C 110.87 96.47 128.36 79.25 145.67 61.87 C 145.95 60.57 144.79 59.81 144.03 59.00 C 137.63 52.74 131.39 46.33 125.00 40.06 C 107.80 57.16 90.70 74.38 73.51 91.49 M 156.41 72.31 C 128.73 99.99 101.06 127.69 73.36 155.35 C 73.01 155.75 72.31 156.57 71.96 156.98 C 79.03 163.95 85.99 171.01 93.03 178.00 C 121.41 149.72 149.68 121.33 178.05 93.03 C 171.07 86.07 164.25 78.91 157.06 72.19 L 156.41 72.31 M 40.06 125.00 C 46.87 131.86 53.69 138.71 60.57 145.51 C 60.90 145.54 61.57 145.61 61.90 145.65 C 68.76 138.77 75.65 131.90 82.50 125.00 C 75.28 118.06 68.63 110.44 61.01 103.97 C 54.07 111.03 47.00 117.95 40.06 125.00 M 187.26 105.17 C 160.45 132.05 133.61 158.89 106.73 185.69 C 105.87 186.86 103.67 187.73 104.44 189.47 C 111.25 196.34 118.08 203.19 124.96 209.99 C 153.32 181.67 181.67 153.33 209.99 124.95 C 203.37 118.23 196.64 111.62 190.00 104.92 C 189.28 103.93 187.84 104.16 187.26 105.17 Z" />
</g>
</svg>

<?xml version="1.0" encoding="utf-8"?>
<!-- Generator: Adobe Illustrator 26.0.3, SVG Export Plug-In . SVG Version: 6.00 Build 0)  -->
<svg version="1.1" id="Layer_1" xmlns="http://www.w3.org/2000/svg" xmlns:xlink="http://www.w3.org/1999/xlink" x="0px" y="0px"
	 viewBox="0 0 250 250" style="enable-background:new 0 0 250 250;" xml:space="preserve">
<style type="text/css">
	.st0{fill:#FFFFFF;}
	.st1{fill:#F0B90B;}
</style>
<g id="_x23_ffffffff">
	<path class="st0" d="M73.5,91.5c17.2-17.1,34.3-34.3,51.5-51.4c6.4,6.3,12.6,12.7,19,18.9c0.8,0.8,1.9,1.6,1.6,2.9
		c-17.3,17.4-34.8,34.6-52,52.1c-0.9-0.1-1.7-0.5-2.4-1.2c-6.4-6.4-12.7-12.9-19.3-19.1C72.4,92.9,72.9,92.2,73.5,91.5z"/>
	<path class="st0" d="M156.4,72.3l0.6-0.1c7.2,6.7,14,13.9,21,20.8c-28.4,28.3-56.6,56.7-85,85c-7-7-14-14.1-21.1-21
		c0.3-0.4,1.1-1.2,1.4-1.6C101.1,127.7,128.7,100,156.4,72.3z"/>
	<path class="st0" d="M40.1,125c6.9-7.1,14-14,20.9-21c7.6,6.5,14.3,14.1,21.5,21c-6.8,6.9-13.7,13.8-20.6,20.6
		c-0.3,0-1-0.1-1.3-0.1C53.7,138.7,46.9,131.9,40.1,125z"/>
	<path class="st0" d="M187.3,105.2c0.6-1,2-1.2,2.7-0.2c6.6,6.7,13.4,13.3,20,20c-28.3,28.4-56.7,56.7-85,85
		c-6.9-6.8-13.7-13.7-20.5-20.5c-0.8-1.7,1.4-2.6,2.3-3.8C133.6,158.9,160.4,132.1,187.3,105.2z"/>
</g>
<g id="_x23_f0b90bff">
	<path class="st1" d="M121.3,0h7.4c27.7,0.9,55,11.1,76.3,28.9c27.4,22.4,44,57.1,45,92.4v7.3c-0.9,27.7-11.1,55.1-28.9,76.4
		c-22.4,27.3-57.1,44-92.4,45h-10c-28.2-1.7-55.8-12.8-76.9-31.7C16.3,195.8,0.9,162.5,0,128.6v-10c1.9-33.1,17.1-65.5,42.2-87.3
		C63.9,12.1,92.4,0.9,121.3,0 M73.5,91.5c-0.6,0.7-1.1,1.4-1.5,2.2c6.6,6.2,12.9,12.7,19.3,19.1c0.7,0.7,1.5,1.1,2.4,1.2
		c17.2-17.5,34.7-34.7,52-52.1c0.3-1.3-0.9-2.1-1.6-2.9c-6.4-6.3-12.6-12.7-19-18.9C107.8,57.2,90.7,74.4,73.5,91.5 M156.4,72.3
		c-27.7,27.7-55.4,55.4-83.1,83c-0.3,0.4-1.1,1.2-1.4,1.6c7.1,7,14,14,21.1,21c28.4-28.3,56.6-56.7,85-85c-7-7-13.8-14.1-21-20.8
		L156.4,72.3 M40.1,125c6.8,6.9,13.6,13.7,20.5,20.5c0.3,0,1,0.1,1.3,0.1c6.9-6.9,13.8-13.8,20.6-20.6c-7.2-6.9-13.9-14.6-21.5-21
		C54.1,111,47,117.9,40.1,125 M187.3,105.2c-26.8,26.9-53.6,53.7-80.5,80.5c-0.9,1.2-3.1,2-2.3,3.8c6.8,6.9,13.6,13.7,20.5,20.5
		c28.4-28.3,56.7-56.7,85-85c-6.6-6.7-13.4-13.3-20-20C189.3,103.9,187.8,104.2,187.3,105.2z"/>
</g>
</svg>
